X: 245
T: 246. Singt dem Herrn ein neues Lied
N: Derived from chor246.krn
C: Johann Sebastian Bach
%%abc-version 2.0
%%abcx-abcm2ps-target-version 5.9.1 (29 Sep 2008)
%%abc-creator hum2abc beta
%%abcx-conversion-date 2019/03/11 17:28:19
%%abc-edited-by Craig Stuart Sapp
%%humdrum-veritas 1229198320
%%humdrum-veritas-data 3032242593
%%
%%barnumbers 0
L: 1/8
M: C
%%staves [1 2 3 4]
V: 1 clef=treble
V: 2 clef=treble
V: 3 clef=treble-8
V: 4 clef=bass
K: G
[V:1] G2G2G2D2 | 
[V:2] DC B,CD2D2 | 
[V:3] Bc dc Bc BA | 
[V:4] G,A, B,A, G,A, G,F, | 
[V:1] G2A2!fermata!B4 | 
[V:2] E/F/G2F!fermata!G4 | 
[V:3] B2ed!fermata!d4 | 
[V:4] E,D, C,D,!fermata!G,,4 | 
[V:1] GAB^cd2f2 | 
[V:2] D2DGF2A2 | 
[V:3] BAB2A2d2- | 
[V:4] G,F,G,E, F,E, D,E,/F,/ | 
[V:1] e4!fermata!d4 :|]  
[V:2] BG EA/G/!fermata!F4 :|]  
[V:3] d^c/B/^c2!fermata!A4 :|]  
[V:4] G,E,A,2!fermata!D,4 :|]  
[V:1] e2d2c2e2 | 
[V:2] GE F^GA2E2 | 
[V:3] =c2d2edcB | 
[V:4] =C3B,A,3=G, | 
[V:1] d2c2B4 | 
[V:2] A^GA2-AG/F/^G2 | 
[V:3] AB cd/e/ =fd Be/d/ | 
[V:4] =F,3E, D,B,,E,2 | 
[V:1] !fermata!A4A2^G2 | 
[V:2] !fermata!E4E2E2 | 
[V:3] !fermata!c4c2B2 | 
[V:4] !fermata!A,,4A,,C,E,D, | 
[V:1] A2B2c2c2 | 
[V:2] E2E2E2E2 | 
[V:3] c2B2-BA/^G/A2- | 
[V:4] C,B,,A,,^G,, A,,B,,C,D, | 
[V:1] !fermata!B4=G2A2 | 
[V:2] !fermata!E4E2-ED/C/ | 
[V:3] A2!fermata!^G2Bc/B/A2 | 
[V:4] !fermata!E,4E,C,=F,2- | 
[V:1] B2c2c2B2 | 
[V:2] DG2=F/E/A2G2 | 
[V:3] GB A/B/cd3=f | 
[V:4] F,E, A,G, =F,D,G,2 | 
[V:1] !fermata!c4d3c | 
[V:2] !fermata!G4G2^F2 | 
[V:3] !fermata!e4d2A2 | 
[V:4] !fermata!C,4C,D,E,2 | 
[V:1] B2A2GAB2 | 
[V:2] D2D2EFG2- | 
[V:3] G2A2Bcd2 | 
[V:4] G,,G,2F, E,D,C,B,, | 
[V:1] A4!fermata!G4 |]  
[V:2] GF/E/F2!fermata!D4 |]  
[V:3] ec Ad/c/!fermata!B4 |]  
[V:4] C,A,,D,2!fermata!G,,4 |]  



